!!!COM:      Bach, Johann Sebastian
!!!CDT:      1685/03/31/-1750/07/28/
!!!OPR@@GER: Das wohltemperirte Clavier
!!!OVM@@GER: Band II
!!!OPR@ENG:  Well-Tempered Clavier
!!!OVM@ENG:  Book II
!!!OTL:      Prelude
!!!OKY:      E-flat major
!!!ONM:      no. 7
!!!SCT:      BWV 876
!!!OMV:      1
**kern	**kern	**kern	**kern	**kern
*M9/8	*staff:13	*M9/8	*staff:14	*staff:14
*MM154	*MM154	*MM154	*MM154	*MM154
*	*clefF4	*	*clefG2	*clefG2
*	*k[b-e-a-]	*	*k[b-e-a-]	*k[b-e-a-]
*	*E-:	*	*E-:	*E-:
*	*M9/8	*	*M9/8	*M9/8
=1-	=1-	=1-	=1-	=1-
8ryy	8r	8ryy	4.g	4.b-
1ryy	8e-	1ryy	.	.
.	8d	.	.	.
.	8e-	.	4.r	4.r
.	8B-	.	.	.
.	8G	.	.	.
.	8E-	.	8r	8r
.	8r	.	4g	8g
.	8r	.	.	8ee-
=2	=2	=2	=2	=2
.	.	.	.	8ee-Q
8ryy	8r	8ryy	4.f	4.dd
1ryy	8B-	1ryy	.	.
.	8An	.	.	.
.	8B-	.	4.r	4.r
.	8F	.	.	.
.	8D	.	.	.
.	8BB-	.	4.ryy	8r
.	8r	.	.	8f
.	8r	.	.	8g
=3	=3	=3	=3	=3
8ryy	8F	8ryy	4.ryy	8a-
1ryy	8r	1ryy	.	8c
.	8r	.	.	8e-
.	8B-	.	4.d	8d
.	8r	.	.	8f
.	8r	.	.	8b-
.	8BB-	.	4.B-	8B-
.	8r	.	.	8f
.	8r	.	.	8a-
=4	=4	=4	=4	=4
.	.	.	.	8a-Q
8ryy	8r	8ryy	4.B- 4.e-	4.g
1ryy	8E-	1ryy	.	.
.	8D	.	.	.
.	8E-	.	4.r	4.r
.	8BB-	.	.	.
.	8GG	.	.	.
.	8EE-	.	4.ryy	8r
.	8r	.	.	8E-
.	8r	.	.	8D
=5	=5	=5	=5	=5
*clefF4	*	*	*	*
*k[b-e-a-]	*	*	*	*
4.r	4.ryy	8ryy	8ryy	8E-
.	.	1ryy	1ryy	8G
.	.	.	.	8F
8r	8ryy	.	.	8G
8r	8ryy	.	.	8B-
8EE-	8EE-	.	.	8A-
4EE-	4E-	.	.	8B-
.	.	.	.	8d-
8EE-	8D-	.	.	8G
=6	=6	=6	=6	=6
4EE-	4C	8ryy	8ryy	8A-
.	.	1ryy	1ryy	8c
8r	8E-	.	.	8B-
8r	4AA-	.	.	8c
8r	.	.	.	8e-
8EE-	8BB-	.	.	8d-
4EE-	4C	.	.	8e-
.	.	.	.	8a-
8EE-	8AA-	.	.	8c
=7	=7	=7	=7	=7
4E-	4F	8ryy	8ryy	8dn
.	.	1ryy	1ryy	8f
8r	8A-	.	.	8e-
4.r	4D	.	.	8f
.	.	.	.	8a-
.	8E-	.	.	8g
8r	4F	.	.	8a-
8r	.	.	.	8ff
8EE- 8BB-	8D	.	.	8a-
=8	=8	=8	=8	=8
4EE- 4BB-	4E-	8ryy	8ryy	8g
.	.	1ryy	1ryy	8b-
8ryy	8F	.	.	8a-
4.ryy	4G	.	.	8b-
.	.	.	.	8ee-
.	8B-	.	.	8dd
4.ryy	4G	.	.	8ee-
.	.	.	.	8gg
.	8D	.	.	8ff
=9	=9	=9	=9	=9
*	*	*staff:12	*staff:12	*
*	*	*clefG2	*	*
*	*	*k[b-e-a-]	*	*
8ryy	4E-	2.ryy	4.ryy	8gg
1ryy	.	.	.	8ee-
.	4C	.	.	8dd
.	.	.	8ryy	[2.ee-
.	8G	.	8cc	.
.	8D	.	8b-	.
.	16E-	8r	[4.cc	.
.	16D	.	.	.
.	16C	8an	.	.
.	16D	.	.	.
.	8E-	8g	.	.
=10	=10	=10	=10	=10
8ryy	8FF	4.an	4.cc]	4.ee-]
1ryy	8f	.	.	.
.	8e-	.	.	.
.	8f	4.ryy	4.ryy	4.r
.	8c	.	.	.
.	8An	.	.	.
.	8F	4.ryy	8ryy	8r
.	8r	.	4an	8a
.	8r	.	.	8ee-
=11	=11	=11	=11	=11
8ryy	8B-	8ryy	2.ryy	8dd
1ryy	8r	1ryy	.	8b-
.	8r	.	.	8f
.	8E-	.	.	8g
.	8r	.	.	8e-
.	8r	.	.	8d
.	8F	.	4.c	8c
.	8r	.	.	8b-
.	8r	.	.	8an
=12	=12	=12	=12	=12
*	*staff:9	*	*staff:10	*staff:10
8ryy	8r	8ryy	4.d	4.b-
1ryy	8B-	1ryy	.	.
.	8An	.	.	.
.	8B-	.	4.r	4.r
.	8F	.	.	.
.	8D	.	.	.
.	8BB-	.	4.ryy	8r
.	8r	.	.	8B-
.	8r	.	.	8An
=13	=13	=13	=13	=13
*	*	*clefF4	*	*
4.r	8ryy	8r	8ryy	8B-
.	1ryy	8BB-	1ryy	8d
.	.	8AAn	.	8c
4r	.	8BB-	.	8d
.	.	8D	.	8f
8BB-	.	8C	.	8e-
4BB-	.	8D	.	8f
.	.	8F	.	8a-X
8BB-	.	8A-	.	8d
=14	=14	=14	=14	=14
4BB-	8ryy	8G	8ryy	8e-
.	1ryy	8B-	1ryy	8g
8r	.	8A-	.	8f
8r	.	8B-	.	8g
8r	.	8G	.	8b-
8BB-	.	8F	.	8a-
4BB-	.	8G	.	8b-
.	.	8B-	.	8ee-
8B-	.	8d	.	8g
=15	=15	=15	=15	=15
4B-	8ryy	8c	8ryy	8an
.	1ryy	8e-	1ryy	8cc
8r	.	8d	.	8b-
4.r	.	8e-	.	8cc
.	.	8c	.	8ee-
.	.	8B-	.	8dd
8r	.	8c	.	8ee-
8r	.	8B-	.	8ccc
8BB- 8F	.	8An	.	8ee-
=16	=16	=16	=16	=16
*	*	*staff:10	*	*
*	*	*clefG2	*	*
4BB- 4F	8ryy	8B-	8ryy	8dd
.	1ryy	8d	1ryy	8b-
8r	.	8c	.	8an
4.r	.	8d	.	8b-
.	.	8f	.	8dd
.	.	8e-	.	8cc
4.r	.	8f	.	8dd
.	.	8a-	.	8ff
.	.	8g	.	8ee-
=17	=17	=17	=17	=17
8ryy	8r	4.a-	4.dd	4.ff
1ryy	8B-	.	.	.
.	8An	.	.	.
.	8B-	4.ryy	4.r	4.r
.	8F	.	.	.
.	8D	.	.	.
.	8BB-	4.ryy	8r	8r
.	8r	.	8e-	8g
.	8r	.	8d	8f
=18	=18	=18	=18	=18
*	*staff:7	*	*staff:8	*staff:8
8ryy	8r	8ryy	4.e-	4.g
1ryy	8B-	1ryy	.	.
.	8A-X	.	.	.
.	8B-	.	4.r	4.r
.	8G	.	.	.
.	8E-	.	.	.
.	8BB-	.	8r	8r
.	8r	.	8f	8dd
.	8r	.	8g	8ee-
=19	=19	=19	=19	=19
*	*	*staff:8	*	*
8ryy	8r	4.ryy	4.a-	4.ff
1ryy	8BB-	.	.	.
.	8AAn	.	.	.
.	8BB-	4.ryy	8r	8r
.	8D	.	8r	8r
.	8C	.	8a-	8ff
.	8D	8ryy	4a-	4bn
.	8F	8ryy	.	.
.	8E-	8f	8a-	8cc
=20	=20	=20	=20	=20
8ryy	8F	4.d	4.a-	4.bn
1ryy	8A-	.	.	.
.	8G	.	.	.
.	8A-	2.ryy	2.ryy	8r
.	8r	.	.	8Bn
.	8r	.	.	8d
.	8BBn	.	.	8f
.	8r	.	.	8e-
.	8r	.	.	8d
=21	=21	=21	=21	=21
8ryy	8C	8ryy	8ryy	8e-
1ryy	8r	1ryy	1ryy	8g
.	8r	.	.	8cc
.	8c	.	.	8ee-
.	8r	.	.	8dd
.	8r	.	.	8cc
.	8B-	.	.	8r
.	8r	.	.	8e-
.	8r	.	.	8cc
=22	=22	=22	=22	=22
8ryy	8A-	8ryy	8ryy	8f
1ryy	8r	1ryy	1ryy	8a-
.	8r	.	.	8cc
.	8AA-	.	.	8ee-
.	8r	.	.	8dd
.	8r	.	.	8cc
.	8E-	.	.	8r
.	8r	.	.	8g
.	8r	.	.	8cc
=23	=23	=23	=23	=23
8ryy	8F	8ryy	8ryy	8a-
1ryy	8r	1ryy	1ryy	8bn
.	8r	.	.	8cc
.	8F#	.	.	8ee-
.	8r	.	.	8dd
.	8r	.	.	8cc
.	8G	.	.	8r
.	8r	.	.	8f
.	8r	.	.	8bn
=24	=24	=24	=24	=24
*	*staff:5	*	*	*staff:6
8ryy	[4.C	8ryy	8ryy	8cc
1ryy	.	1ryy	1ryy	8g
.	.	.	.	8e-
.	8C]	.	.	8c
.	8E-	.	.	8r
.	8G	.	.	8r
.	8B-	.	.	4.r
.	8An	.	.	.
.	8G	.	.	.
=25	=25	=25	=25	=25
8ryy	8An	8ryy	8ryy	8r
1ryy	8r	1ryy	1ryy	8ee-
.	8r	.	.	8dd
.	4.r	.	.	8ee-
.	.	.	.	8cc
.	.	.	.	8an
.	8r	.	.	8f
.	8c	.	.	8r
.	8F	.	.	8r
=26	=26	=26	=26	=26
*	*	*staff:6	*staff:6	*
8ryy	8B-	4.ryy	4.ryy	8r
1ryy	8r	.	.	8f
.	8r	.	.	8e-
.	4.r	[4.f	8ryy	8f
.	.	.	[4b-	8b-
.	.	.	.	8cc
.	8r	8f]	8b-]	8dd-
.	8A-X	8ryy	8r	8r
.	8F	8ryy	8r	8r
=27	=27	=27	=27	=27
8ryy	8G	8ryy	8ryy	8r
1ryy	8r	1ryy	1ryy	8dd-
.	8r	.	.	8cc
.	4.r	.	.	8dd-
.	.	.	.	8b-
.	.	.	.	8g
.	8r	.	.	8e-
.	8B-	.	.	8r
.	8E-	.	.	8r
=28	=28	=28	=28	=28
8ryy	8A-	4.ryy	4.ryy	8r
1ryy	8r	.	.	8e-
.	8r	.	.	8d-
.	4.r	[4.e-	8ryy	8e-
.	.	.	[4a-	8a-
.	.	.	.	8b-
.	8r	8e-]	8a-]	8cc
.	8G	8ryy	8r	8r
.	8E-	8ryy	8r	8r
=29	=29	=29	=29	=29
8ryy	4F	8ryy	8ryy	8r
1ryy	.	1ryy	1ryy	8dn
.	8r	.	.	8a-
.	4.r	.	.	8cc
.	.	.	.	8b-
.	.	.	.	8a-
.	8G	.	.	8r
.	8r	.	.	8d-
.	8r	.	.	8b-
=30	=30	=30	=30	=30
*	*staff:3	*	*	*staff:4
8ryy	8En	8ryy	8ryy	8r
1ryy	8r	1ryy	1ryy	8c
.	8r	.	.	8g
.	4.r	.	.	8b-
.	.	.	.	8a-
.	.	.	.	8g
.	8F	.	.	8r
.	8r	.	.	8c
.	8r	.	.	8a-
=31	=31	=31	=31	=31
8ryy	8D	8ryy	8ryy	8r
1ryy	8r	1ryy	1ryy	8B-
.	8r	.	.	8a-
.	8E-	.	.	8r
.	8r	.	.	8a-
.	8r	.	.	8g
.	8AAn	.	.	8r
.	8r	.	.	8cc
.	8r	.	.	8e-
=32	=32	=32	=32	=32
8ryy	8BB-	8ryy	8ryy	8r
1ryy	8r	1ryy	1ryy	8d
.	8r	.	.	8c
.	8r	.	.	8d
.	8D	.	.	8B-
.	8C	.	.	8An
.	8D	.	.	8B-
.	8F	.	.	8d
.	8A-X	.	.	8f
=33	=33	=33	=33	=33
8ryy	8BB-	8ryy	8ryy	8a-
1ryy	8D	1ryy	1ryy	8f
.	8C	.	.	8e-
.	8D	.	.	8f
.	8F	.	.	8d
.	8E-	.	.	8c
.	8F	.	.	8d
.	8D	.	.	8f
.	8BB-	.	.	8a-
=34	=34	=34	=34	=34
8ryy	8r	8ryy	8ryy	8cc
1ryy	8r	1ryy	1ryy	8e-
.	8F	.	.	8d
.	4GG	.	.	8b-
.	.	.	.	8d-
.	8E-	.	.	8c
.	4FF	.	.	8a-
.	.	.	.	8c-
.	8D	.	.	8B-
=35	=35	=35	=35	=35
8ryy	8EE-	8ryy	8ryy	8r
1ryy	8r	1ryy	1ryy	8g
.	8r	.	.	8f
.	8r	.	.	8g
.	8G	.	.	8e-
.	8F	.	.	8d
.	8G	.	.	8e-
.	8B-	.	.	8g
.	8d-	.	.	8b-
=36	=36	=36	=36	=36
*	*staff:1	*	*	*staff:2
8ryy	8E-	8ryy	8ryy	8dd-
1ryy	8G	1ryy	1ryy	8b-
.	8F	.	.	8a-
.	8G	.	.	8b-
.	8B-	.	.	8g
.	8A-	.	.	8f
.	8B-	.	.	8g
.	8G	.	.	8b-
.	8E-	.	.	8dd-X
=37	=37	=37	=37	=37
8ryy	8r	8ryy	8ryy	8ff
1ryy	8r	1ryy	1ryy	8a-
.	8B-	.	.	8g
.	4C	.	.	8ee-
.	.	.	.	8g-
.	8A-	.	.	8f
.	4BB-	.	.	8dd-
.	.	.	.	8f-
.	8G	.	.	8e-
=38	=38	=38	=38	=38
8ryy	4AA-	8ryy	8ryy	8r
1ryy	.	1ryy	1ryy	8cc
.	8r	.	.	8b-
.	8r	.	.	8cc
.	8c	.	.	8a-
.	8B-	.	.	8g
.	4c	.	.	8a-
.	.	.	.	8cc
.	8r	.	.	8ee-
=39	=39	=39	=39	=39
8ryy	8r	8ryy	8ryy	8gg
1ryy	8r	1ryy	1ryy	8b-
.	8C	.	.	8an
.	4d	.	.	8ff
.	.	.	.	8a-
.	8BB-	.	.	8g
.	4c	.	.	8ee-
.	.	.	.	8g-
.	8AAn	.	.	8f
=40	=40	=40	=40	=40
8ryy	4BB-	8ryy	8ryy	8r
1ryy	.	1ryy	1ryy	8dd
.	8r	.	.	8cc
.	8r	.	.	8dd
.	8d	.	.	8b-
.	8c	.	.	8an
.	4d	.	.	8b-
.	.	.	.	8dd
.	8r	.	.	8ff
=41	=41	=41	=41	=41
8ryy	8r	8ryy	8ryy	8aa-X
1ryy	8r	1ryy	1ryy	8cc
.	8D	.	.	8bn
.	4e-	.	.	8gg
.	.	.	.	8b-
.	8C	.	.	8an
.	4d	.	.	8ff
.	.	.	.	8a-
.	8BBn	.	.	8g
=42	=42	=42	=42	=42
*	*staff:9	*	*	*staff:10
8ryy	4C	8ryy	8ryy	8r
1ryy	.	1ryy	1ryy	8ee-
.	8r	.	.	8dd
.	8r	.	.	8ee-
.	8e-	.	.	8cc
.	8d	.	.	8bn
.	4e-	.	.	8cc
.	.	.	.	8ee-
.	8r	.	.	8gg
=43	=43	=43	=43	=43
8ryy	8r	8ryy	8ryy	4ccc
1ryy	8a-	1ryy	1ryy	.
.	8g	.	.	8bbn
.	8a-	.	.	8ccc
.	8e-	.	.	8gg
.	8c	.	.	8aa-
.	8g	.	.	8r
.	8d	.	.	8ff#
.	8B-X	.	.	8gg
=44	=44	=44	=44	=44
8ryy	8f#	8ryy	8ryy	4ccc
1ryy	8c	1ryy	1ryy	.
.	8An	.	.	8ff#
.	8e-	.	.	8gg
.	8B-	.	.	8dd
.	8G	.	.	8ee-
.	8d	.	.	8r
.	8An	.	.	8cc#
.	8F#X	.	.	8dd
=45	=45	=45	=45	=45
8ryy	8G	8ryy	8ryy	8bb-
1ryy	8r	1ryy	1ryy	8gg
.	8r	.	.	8dd
.	8C	.	.	8ee-
.	8r	.	.	8gg
.	8r	.	.	8ccc
.	8C#	.	.	8bb-
.	8r	.	.	8aan
.	8r	.	.	8gg
=46	=46	=46	=46	=46
8ryy	8D	8ryy	8ryy	16ff#
.	.	.	.	16gg
1ryy	8r	1ryy	1ryy	8aan
.	8r	.	.	8dd
.	8r	.	.	8ee-
.	8r	.	.	8dd
.	8DD	.	.	8cc
.	4EEn	.	.	8b-
.	.	.	.	8cc
.	8FF#	.	.	8an
=47	=47	=47	=47	=47
*	*staff:7	*	*	*staff:8
8ryy	8GG	8ryy	8ryy	8b-
1ryy	8r	1ryy	1ryy	8dd
.	8r	.	.	8gg
.	8G	.	.	8bb-
.	8r	.	.	8aan
.	8r	.	.	8gg
.	8F	.	.	8r
.	8r	.	.	8b-
.	8r	.	.	8gg
=48	=48	=48	=48	=48
8ryy	8E-	8ryy	8ryy	8cc
1ryy	8r	1ryy	1ryy	8ee-
.	8r	.	.	8gg
.	8EE-	.	.	8bb-
.	8r	.	.	8aan
.	8r	.	.	8gg
.	8BB-	.	.	8r
.	8r	.	.	8dd
.	8r	.	.	8gg
=49	=49	=49	=49	=49
8ryy	8C	8ryy	8ryy	8ee-
1ryy	8r	1ryy	1ryy	8ff#
.	8r	.	.	8gg
.	8C#	.	.	8b-
.	8r	.	.	8an
.	8r	.	.	8g
.	8D	.	.	8r
.	8r	.	.	8cc
.	8r	.	.	8f#X
=50	=50	=50	=50	=50
8ryy	[4.GG	8ryy	8ryy	8g
1ryy	.	1ryy	1ryy	8b-
.	.	.	.	8dd
.	8GG]	.	.	8gg
.	8BB-	.	.	8r
.	8D	.	.	8r
.	8F	.	.	[4.b-
.	8En	.	.	.
.	8D	.	.	.
=51	=51	=51	=51	=51
8ryy	4En	8ryy	8ryy	8b-]
1ryy	.	1ryy	1ryy	8dd-
.	8r	.	.	8cc
.	4.r	.	.	8dd-
.	.	.	.	8b-
.	.	.	.	8g
.	8r	.	.	4en
.	8G	.	.	.
.	8C	.	.	[8b-
=52	=52	=52	=52	=52
*clefG2	*	*	*	*
4.ryy	4F	4.ryy	4.ryy	8b-]
.	.	.	.	8a-
.	8r	.	.	8g
[4.a-	4.r	8ryy	4.ryy	8a-
.	.	[4cc	.	8cc
.	.	.	.	8ff
4a-]	8r	4cc]	4ff	4aa-
.	8C	.	.	.
8ryy	8E-	8r	8ryy	8r
=53	=53	=53	=53	=53
*	*staff:5	*	*	*staff:6
8ryy	8D	8ryy	8ryy	8r
1ryy	8r	1ryy	1ryy	8aa-
.	8r	.	.	8gg
.	4.r	.	.	8aa-
.	.	.	.	8ff
.	.	.	.	8dd
.	8r	.	.	4b-
.	8d	.	.	.
.	8B-	.	.	[8aa-
=54	=54	=54	=54	=54
8ryy	4e-	8ryy	8ryy	8aa-]
1ryy	.	1ryy	1ryy	8gg
.	8r	.	.	8ff
.	4.r	.	.	8gg
.	.	.	.	8ee-
.	.	.	.	8b-
.	8r	.	.	8g
.	8G	.	.	8b-
.	8E-	.	.	[8dd-
=55	=55	=55	=55	=55
8ryy	8A-	8ryy	8ryy	8dd-]
1ryy	8E-	1ryy	1ryy	8cc
.	8D-	.	.	8b-
.	8C	.	.	8a-
.	8BB-	.	.	8g
.	8AA-	.	.	[8f
.	8GG	.	.	8f]
.	8C	.	.	8e-
.	8BB-	.	.	[8g-
=56	=56	=56	=56	=56
2.ryy	8AAn	8ryy	8ryy	8g-]
.	16BB-	1ryy	1ryy	8f
.	16AA	.	.	.
.	16GG	.	.	8e-
.	16AA	.	.	.
.	8BB-	.	.	8d
.	8r	.	.	8c
.	8r	.	.	8B-
4.r	4.r	.	.	8A-X
.	.	.	.	8G
.	.	.	.	8F
=57	=57	=57	=57	=57
8BB-	8r	8ryy	8ryy	8G
8r	8r	1ryy	1ryy	8e-
8r	8r	.	.	8d
4.r	4.r	.	.	8e-
.	.	.	.	8B-
.	.	.	.	8A-
4.r	4.r	.	.	8G
.	.	.	.	8F
.	.	.	.	8E-
=58	=58	=58	=58	=58
8BB-	8r	8ryy	8ryy	8D
8r	8r	1ryy	1ryy	8f
8r	8r	.	.	8e-
4.r	4.r	.	.	8f
.	.	.	.	8d
.	.	.	.	8B-
4.r	4.r	.	.	8A-
.	.	.	.	8G
.	.	.	.	8F
=59	=59	=59	=59	=59
8BB-	8r	8ryy	8ryy	8E-
8r	8r	1ryy	1ryy	8g
8r	8r	.	.	8f
4.r	4.r	.	.	8g
.	.	.	.	8e-
.	.	.	.	8c
4.r	4.r	.	.	8B-
.	.	.	.	8A-
.	.	.	.	8G
=60	=60	=60	=60	=60
8BB- 8D	8r	8ryy	8ryy	8F
8r	8r	1ryy	1ryy	8a-
8r	8r	.	.	8g
4.r	4.r	.	.	8a-
.	.	.	.	8f
.	.	.	.	8d
4.r	8c	.	.	4.r
.	8B-	.	.	.
.	8A-	.	.	.
=61	=61	=61	=61	=61
*	*	*	*staff:4	*
8ryy	8G	8ryy	4.e- 4.g	4.b-
1ryy	8B-	1ryy	.	.
.	8A-	.	.	.
.	8B-	.	4.r	4.r
.	8G	.	.	.
.	8E-	.	.	.
.	8BB-	.	8r	8r
.	8r	.	4g	8g
.	8r	.	.	8ee-
=62	=62	=62	=62	=62
.	.	.	.	8ee-Q
*	*	*staff:4	*	*
8ryy	8r	4.f	8ryy	4.dd
1ryy	8B-	.	1ryy	.
.	8An	.	.	.
.	8B-	4.r	.	4.r
.	8F	.	.	.
.	8D	.	.	.
.	8BB-	4.ryy	.	8r
.	8r	.	.	8f
.	8r	.	.	8g
=63	=63	=63	=63	=63
8ryy	8r	8ryy	8ryy	8a-
1ryy	8r	1ryy	1ryy	8c
.	8G	.	.	8e-
.	4F	.	.	8d
.	.	.	.	8f
.	8E-	.	.	8b-
.	4D	.	.	8B-
.	.	.	.	8f
.	8BB-	.	.	8a-
=64	=64	=64	=64	=64
8ryy	4EE-	8ryy	8ryy	8g
1ryy	.	1ryy	1ryy	8B-
.	8F	.	.	8d-
.	4E-	.	.	8c
.	.	.	.	8e-
.	8D-	.	.	8a-
.	4C	.	.	8A-
.	.	.	.	8e-
.	8AA-	.	.	8g
=65	=65	=65	=65	=65
*	*staff:1	*	*	*staff:2
8ryy	4DDn	8ryy	8ryy	8f
1ryy	.	1ryy	1ryy	8A-
.	8E-	.	.	8c
.	4D	.	.	8B-
.	.	.	.	8d
.	8C	.	.	8g
.	4BB-	.	.	8G
.	.	.	.	8d
.	8GG	.	.	8f
=66	=66	=66	=66	=66
8ryy	4CC	8ryy	8ryy	8e-
1ryy	.	1ryy	1ryy	8G
.	8D-	.	.	8B-
.	4C	.	.	8A-
.	.	.	.	8c
.	8BB-	.	.	8f
.	4AA-	.	.	8F
.	.	.	.	8c
.	8GG	.	.	8e-
=67	=67	=67	=67	=67
*	*	*staff:2	*staff:2	*
8ryy	4.AA-	4.F	4.B-	4.d
1ryy	.	.	.	.
.	8r	8r	8ryy	8r
.	8r	8r	8ryy	8r
.	8D	8b-	8ff	8aa-
.	8E-	4b-	4ee-	4gg
.	16F	.	.	.
.	16G	.	.	.
.	16A-	8r	8ryy	8r
.	16B-	.	.	.
=68	=68	=68	=68	=68
8ryy	16c	8r	8ryy	8r
.	16d	.	.	.
1ryy	8e-	8r	8ryy	8r
.	8A-	8a-	8cc	8ff
.	4.B-	4.g	2.b-	4.ee-
.	4.BB-	4.f	.	4ddw
.	.	.	.	8ee-
=69	=69	=69	=69	=69
8ryy	4.E-	8ryy	8ryy	8ee-
1ryy	.	1ryy	1ryy	8b-
.	.	.	.	8a-
.	4.r	.	.	8b-
.	.	.	.	8g
.	.	.	.	8f
.	4.r	.	.	8g
.	.	.	.	8e-
.	.	.	.	8d
=70	=70	=70	=70	=70
8ryy	1r	8ryy	8ryy	8e-
1ryy	.	1ryy	1ryy	8B-
.	.	.	.	8A-
.	.	.	.	8B-
.	.	.	.	8G
.	.	.	.	8F
.	.	.	.	8G
.	.	.	.	8E-
.	8ryy	.	.	8D
=71	=71	=71	=71	=71
8ryy	4.ryy	8ryy	8ryy	4.E-
1ryy	.	1ryy	1ryy	.
.	4.ryy	.	.	4.EE-
.	4.ryy	.	.	4.r
==	==	==	==	==
*-	*-	*-	*-	*-
!!!AFR:  prelude
!!!EFL:  61/96
!!!END:  1994/02/03/
!!!VID:  3773979869 Bach, BWV 876-01
!!!AST:  Baroque
!!!OCY:  Deutschland
!!!ODT:  1742///
!!!PDT:  1801///
!!!EED:  Walter Hewlett
!!!ENC:  Walter Hewlett
!!!YOR:  Bach Gesellschaft Edition xiv
!!!AFT:  enhanced SCORE
!!!RDT:  2011/10/07/ by Andreas Kornstaedt using massScr2hmd
!!!SCA1: Thematisch-systematisches Verzeichnis der musikalischen Werke 
!!!SCA2: Johann Sebastian Bach: Bach-Werke-Verzeichnis (Schmieder)
!!!YEC1: Copyright 1994, 2000 Center for Computer Assisted Research 
!!!YEC2: in the Humanities
!!!YEM1: Rights to all derivative editions reserved.
!!!YEM2: Refer to licensing agreement for further details.
!!!YEN:  United States of America
!!!ref:  @{OTL}, @{SCT}
!!muse2ps: T^@{OTL} @{ONM} in @{OKY}^C^J.S. Bach\n@{SCT}-@{OMV}^
!!muse2ps: u^@{OPR@ENG}, @{OVM@ENG}^j
